public/logos/TO.svg

<?xml version="1.0" encoding="UTF-8"?>
<svg xmlns="http://www.w3.org/2000/svg" xmlns:xlink="http://www.w3.org/1999/xlink" width="176pt" height="42.56pt" viewBox="0 0 176 42.56" version="1.1">
<defs>
<clipPath id="clip1">
  <path d="M 0 0 L 43 0 L 43 42.558594 L 0 42.558594 Z M 0 0 "/>
</clipPath>
</defs>
<g id="surface1">
<g clip-path="url(#clip1)" clip-rule="nonzero">
<path style=" stroke:none;fill-rule:evenodd;fill:rgb(19.017029%,40.827942%,73.318481%);fill-opacity:1;" d="M 42.5625 21.277344 C 42.5625 33.03125 33.035156 42.558594 21.28125 42.558594 C 9.527344 42.558594 0 33.03125 0 21.277344 C 0 9.523438 9.527344 -0.00390625 21.28125 -0.00390625 C 33.035156 -0.00390625 42.5625 9.523438 42.5625 21.277344 "/>
</g>
<path style=" stroke:none;fill-rule:evenodd;fill:rgb(31.770325%,68.269348%,89.958191%);fill-opacity:1;" d="M 39.328125 21.277344 C 39.328125 31.246094 31.246094 39.324219 21.28125 39.324219 C 11.316406 39.324219 3.238281 31.246094 3.238281 21.277344 C 3.238281 11.3125 11.316406 3.234375 21.28125 3.234375 C 31.246094 3.234375 39.328125 11.3125 39.328125 21.277344 "/>
<path style=" stroke:none;fill-rule:evenodd;fill:rgb(70.205688%,83.964539%,13.841248%);fill-opacity:1;" d="M 35.871094 21.277344 C 35.871094 29.335938 29.339844 35.871094 21.28125 35.871094 C 13.222656 35.871094 6.691406 29.335938 6.691406 21.277344 C 6.691406 13.21875 13.222656 6.6875 21.28125 6.6875 C 29.339844 6.6875 35.871094 13.21875 35.871094 21.277344 "/>
<path style=" stroke:none;fill-rule:evenodd;fill:rgb(40.452576%,77.027893%,18.989563%);fill-opacity:1;" d="M 9.625 21.277344 C 9.625 14.839844 14.84375 9.625 21.28125 9.625 C 27.71875 9.625 32.9375 14.839844 32.9375 21.277344 C 32.9375 27.714844 27.71875 32.933594 21.28125 32.933594 C 14.84375 32.933594 9.625 27.714844 9.625 21.277344 "/>
<path style=" stroke:none;fill-rule:evenodd;fill:rgb(40.452576%,77.027893%,18.989563%);fill-opacity:1;" d="M 54.511719 15.5625 L 54.511719 17.921875 L 56.921875 17.921875 L 56.921875 20.742188 L 54.511719 20.742188 L 54.511719 23.785156 C 54.511719 24.46875 54.757812 24.714844 55.523438 24.714844 L 56.921875 24.714844 L 56.921875 27.566406 L 55.773438 27.566406 C 52.839844 27.566406 51.496094 26.332031 51.496094 23.566406 L 51.496094 15.5625 L 54.511719 15.5625 "/>
<path style=" stroke:none;fill-rule:evenodd;fill:rgb(100%,100%,100%);fill-opacity:1;" d="M 21.28125 12.996094 L 21.28125 16.363281 L 24.722656 16.363281 L 24.722656 20.390625 L 21.28125 20.390625 L 21.28125 24.734375 C 21.28125 25.714844 21.632812 26.066406 22.730469 26.066406 L 24.722656 26.066406 L 24.722656 30.132812 L 23.082031 30.132812 C 18.894531 30.132812 16.976562 28.375 16.976562 24.421875 L 16.976562 12.996094 L 21.28125 12.996094 "/>
<path style=" stroke:none;fill-rule:evenodd;fill:rgb(40.452576%,77.027893%,18.989563%);fill-opacity:1;" d="M 58.8125 17.921875 L 61.582031 17.921875 L 61.582031 19.371094 C 62.210938 18.332031 63.167969 17.921875 64.621094 17.921875 C 64.730469 17.921875 64.84375 17.921875 64.976562 17.921875 L 64.976562 20.851562 C 64.953125 20.851562 64.894531 20.851562 64.84375 20.851562 C 62.648438 20.851562 61.746094 21.730469 61.746094 23.949219 L 61.746094 27.566406 L 58.8125 27.566406 L 58.8125 17.921875 "/>
<path style=" stroke:none;fill-rule:evenodd;fill:rgb(40.452576%,77.027893%,18.989563%);fill-opacity:1;" d="M 82.980469 22.195312 C 82.980469 21.289062 82.40625 20.660156 81.585938 20.660156 C 80.761719 20.660156 80.1875 21.289062 80.160156 22.195312 L 80.160156 27.566406 L 77.144531 27.566406 L 77.144531 22.6875 C 77.144531 19.539062 79.007812 17.730469 81.585938 17.730469 C 83.035156 17.730469 84.351562 18.414062 85.203125 19.566406 C 85.832031 20.46875 85.996094 21.457031 85.996094 22.6875 L 85.996094 27.566406 L 82.980469 27.566406 L 82.980469 22.195312 "/>
<path style=" stroke:none;fill-rule:evenodd;fill:rgb(40.452576%,77.027893%,18.989563%);fill-opacity:1;" d="M 91.394531 24.855469 C 91.75 24.855469 91.941406 24.714844 91.941406 24.46875 C 91.941406 24.304688 91.832031 24.167969 91.667969 24.085938 L 90.269531 23.484375 C 88.679688 22.824219 87.914062 21.894531 87.914062 20.578125 C 87.914062 18.960938 89.121094 17.921875 91.3125 17.921875 L 94.601562 17.921875 L 94.601562 20.523438 L 91.367188 20.523438 C 91.09375 20.523438 90.875 20.660156 90.875 20.878906 C 90.875 21.042969 91.011719 21.210938 91.148438 21.261719 L 92.492188 21.8125 C 94.246094 22.550781 95.121094 23.429688 95.121094 24.855469 C 95.121094 25.757812 94.683594 26.523438 93.914062 27.046875 C 93.121094 27.566406 92.160156 27.566406 90.957031 27.566406 L 87.75 27.566406 L 87.75 24.855469 L 91.394531 24.855469 "/>
<path style=" stroke:none;fill-rule:evenodd;fill:rgb(40.452576%,77.027893%,18.989563%);fill-opacity:1;" d="M 111.980469 24.496094 C 112.09375 23.894531 112.257812 23.265625 112.449219 22.550781 L 113.707031 17.921875 L 116.832031 17.921875 L 114.285156 25.867188 C 113.871094 27.15625 113.105469 27.757812 111.980469 27.757812 C 110.832031 27.757812 110.089844 27.15625 109.679688 25.867188 L 107.132812 17.921875 L 110.226562 17.921875 L 111.515625 22.550781 C 111.707031 23.238281 111.84375 23.894531 111.980469 24.496094 "/>
<path style=" stroke:none;fill-rule:evenodd;fill:rgb(40.452576%,77.027893%,18.989563%);fill-opacity:1;" d="M 118.476562 17.921875 L 121.574219 17.921875 L 121.574219 27.566406 L 118.476562 27.566406 Z M 120.011719 13.5625 C 120.996094 13.5625 121.792969 14.332031 121.792969 15.316406 C 121.792969 16.277344 120.996094 17.070312 120.011719 17.070312 C 119.050781 17.070312 118.257812 16.277344 118.257812 15.316406 C 118.257812 14.332031 119.050781 13.5625 120.011719 13.5625 "/>
<path style=" stroke:none;fill-rule:evenodd;fill:rgb(19.017029%,40.827942%,73.318481%);fill-opacity:1;" d="M 146.761719 20.851562 C 145.28125 20.851562 144.40625 21.648438 144.40625 22.742188 C 144.40625 23.867188 145.28125 24.632812 146.761719 24.632812 L 148.078125 24.632812 L 148.078125 27.566406 L 146.953125 27.566406 C 143.417969 27.566406 141.308594 25.539062 141.308594 22.742188 C 141.308594 19.949219 143.417969 17.921875 146.953125 17.921875 L 148.078125 17.921875 L 148.078125 20.851562 L 146.761719 20.851562 "/>
<path style=" stroke:none;fill-rule:evenodd;fill:rgb(19.017029%,40.827942%,73.318481%);fill-opacity:1;" d="M 155.191406 24.6875 C 156.152344 24.6875 156.972656 23.839844 156.972656 22.714844 C 156.972656 21.59375 156.152344 20.742188 155.191406 20.742188 C 154.234375 20.742188 153.4375 21.59375 153.4375 22.714844 C 153.4375 23.839844 154.234375 24.6875 155.191406 24.6875 Z M 151.765625 19.179688 C 152.671875 18.25 153.878906 17.730469 155.191406 17.730469 C 156.507812 17.730469 157.714844 18.222656 158.644531 19.179688 C 159.578125 20.140625 160.070312 21.402344 160.070312 22.742188 C 160.070312 24.085938 159.578125 25.320312 158.644531 26.277344 C 157.714844 27.238281 156.507812 27.757812 155.191406 27.757812 C 153.878906 27.757812 152.671875 27.210938 151.765625 26.277344 C 150.835938 25.320312 150.3125 24.113281 150.3125 22.742188 C 150.3125 21.375 150.835938 20.167969 151.765625 19.179688 "/>
<path style=" stroke:none;fill-rule:evenodd;fill:rgb(19.017029%,40.827942%,73.318481%);fill-opacity:1;" d="M 161.996094 22.496094 C 161.996094 19.511719 163.777344 17.730469 166.136719 17.730469 C 167.230469 17.730469 168.21875 18.167969 168.984375 18.988281 C 169.753906 18.167969 170.765625 17.730469 171.753906 17.730469 C 174.21875 17.730469 176 19.484375 176 22.496094 L 176 27.566406 L 172.984375 27.566406 L 172.984375 22.003906 C 172.984375 21.210938 172.464844 20.660156 171.753906 20.660156 C 171.011719 20.660156 170.464844 21.210938 170.464844 22.003906 L 170.464844 27.566406 L 167.476562 27.566406 L 167.476562 22.003906 C 167.476562 21.210938 166.957031 20.660156 166.21875 20.660156 C 165.503906 20.660156 164.984375 21.210938 164.984375 22.003906 L 164.984375 27.566406 L 161.996094 27.566406 L 161.996094 22.496094 "/>
<path style=" stroke:none;fill-rule:evenodd;fill:rgb(19.017029%,40.827942%,73.318481%);fill-opacity:1;" d="M 138.550781 25.019531 C 139.371094 25.019531 139.976562 25.648438 139.976562 26.445312 C 139.976562 27.210938 139.347656 27.839844 138.550781 27.839844 C 137.785156 27.839844 137.128906 27.210938 137.128906 26.445312 C 137.128906 25.648438 137.757812 25.019531 138.550781 25.019531 "/>
<path style=" stroke:none;fill-rule:evenodd;fill:rgb(40.452576%,77.027893%,18.989563%);fill-opacity:1;" d="M 75.171875 20.523438 C 74.378906 18.796875 72.707031 17.730469 70.761719 17.730469 C 67.964844 17.730469 65.910156 19.785156 65.910156 22.714844 C 65.910156 25.59375 67.9375 27.703125 70.761719 27.703125 C 70.953125 27.703125 71.199219 27.703125 71.445312 27.648438 L 71.445312 24.550781 C 71.226562 24.605469 71.035156 24.632812 70.871094 24.632812 C 69.691406 24.632812 69.007812 23.894531 69.007812 22.714844 C 69.007812 21.539062 69.71875 20.796875 70.707031 20.796875 C 71.9375 20.796875 72.570312 21.539062 72.570312 22.964844 L 72.570312 27.566406 L 75.582031 27.566406 L 75.582031 23.539062 C 75.582031 22.414062 75.582031 21.457031 75.171875 20.523438 "/>
<path style=" stroke:none;fill-rule:evenodd;fill:rgb(40.452576%,77.027893%,18.989563%);fill-opacity:1;" d="M 106.117188 20.523438 C 105.324219 18.796875 103.652344 17.730469 101.707031 17.730469 C 98.910156 17.730469 96.855469 19.785156 96.855469 22.714844 C 96.855469 25.59375 98.882812 27.703125 101.707031 27.703125 C 101.898438 27.703125 102.117188 27.703125 102.390625 27.648438 L 102.390625 24.550781 C 102.171875 24.605469 101.980469 24.632812 101.816406 24.632812 C 100.636719 24.632812 99.953125 23.894531 99.953125 22.714844 C 99.953125 21.539062 100.664062 20.796875 101.652344 20.796875 C 102.886719 20.796875 103.515625 21.539062 103.515625 22.964844 L 103.515625 27.566406 L 106.527344 27.566406 L 106.527344 23.539062 C 106.527344 22.414062 106.527344 21.457031 106.117188 20.523438 "/>
<path style=" stroke:none;fill-rule:evenodd;fill:rgb(40.452576%,77.027893%,18.989563%);fill-opacity:1;" d="M 133.902344 20.523438 C 133.136719 18.796875 131.464844 17.730469 129.519531 17.730469 C 126.722656 17.730469 124.640625 19.785156 124.640625 22.714844 C 124.640625 25.59375 126.667969 27.703125 129.519531 27.703125 C 129.710938 27.703125 129.929688 27.703125 130.203125 27.648438 L 130.203125 24.550781 C 129.984375 24.605469 129.792969 24.632812 129.628906 24.632812 C 128.449219 24.632812 127.765625 23.894531 127.765625 22.714844 C 127.765625 21.539062 128.476562 20.796875 129.464844 20.796875 C 130.695312 20.796875 131.328125 21.539062 131.328125 22.964844 L 131.328125 27.566406 L 134.34375 27.566406 L 134.34375 23.539062 C 134.34375 22.414062 134.34375 21.457031 133.902344 20.523438 "/>
</g>
</svg>

<svg xmlns="http://www.w3.org/2000/svg" width="176pt" height="56.747" viewBox="0 0 176 42.56"><defs><clipPath id="a"><path d="M0 0h43v42.559H0Zm0 0"/></clipPath></defs><g clip-path="url(#a)"><path d="M42.563 21.277c0 11.754-9.528 21.282-21.282 21.282S0 33.03 0 21.277 9.527-.003 21.281-.003s21.282 9.526 21.282 21.28" style="stroke:none;fill-rule:evenodd;fill:#3068bb;fill-opacity:1"/></g><path d="M39.328 21.277c0 9.97-8.082 18.047-18.047 18.047S3.238 31.246 3.238 21.277c0-9.965 8.078-18.043 18.043-18.043s18.047 8.079 18.047 18.043" style="stroke:none;fill-rule:evenodd;fill:#51aee5;fill-opacity:1"/><path d="M35.871 21.277c0 8.059-6.531 14.594-14.59 14.594-8.058 0-14.59-6.535-14.59-14.594s6.532-14.59 14.59-14.59 14.59 6.532 14.59 14.59" style="stroke:none;fill-rule:evenodd;fill:#b3d623;fill-opacity:1"/><path d="M9.625 21.277c0-6.437 5.219-11.652 11.656-11.652s11.657 5.215 11.657 11.652c0 6.438-5.22 11.657-11.657 11.657S9.625 27.714 9.625 21.277M54.512 15.563v2.359h2.41v2.82h-2.41v3.043c0 .684.246.93 1.011.93h1.399v2.851h-1.149c-2.933 0-4.277-1.234-4.277-4v-8.003z" style="stroke:none;fill-rule:evenodd;fill:#67c430;fill-opacity:1"/><path d="M21.281 12.996v3.367h3.442v4.028H21.28v4.343c0 .98.352 1.332 1.45 1.332h1.992v4.067h-1.641c-4.187 0-6.105-1.758-6.105-5.711V12.996z" style="stroke:none;fill-rule:evenodd;fill:#fff;fill-opacity:1"/><path d="M58.813 17.922h2.769v1.45c.629-1.04 1.586-1.45 3.04-1.45h.355v2.93h-.133c-2.196 0-3.098.878-3.098 3.097v3.617h-2.934zM82.98 22.195c0-.906-.574-1.535-1.394-1.535-.824 0-1.398.63-1.426 1.535v5.371h-3.015v-4.878c0-3.149 1.863-4.958 4.44-4.958 1.45 0 2.767.684 3.618 1.836.629.903.793 1.891.793 3.122v4.878H82.98zM91.395 24.855c.355 0 .546-.14.546-.386 0-.164-.109-.301-.273-.383l-1.398-.602c-1.59-.66-2.356-1.59-2.356-2.906 0-1.617 1.207-2.656 3.398-2.656h3.29v2.601h-3.235c-.273 0-.492.137-.492.356a.45.45 0 0 0 .273.383l1.344.55c1.754.739 2.63 1.618 2.63 3.043 0 .903-.438 1.668-1.208 2.192-.793.52-1.754.52-2.957.52H87.75v-2.712zM111.98 24.496c.114-.601.278-1.23.47-1.945l1.257-4.63h3.125l-2.547 7.946c-.414 1.29-1.18 1.89-2.305 1.89-1.148 0-1.89-.6-2.3-1.89l-2.547-7.945h3.094l1.289 4.629c.191.687.328 1.344.464 1.945M118.477 17.922h3.097v9.644h-3.097Zm1.535-4.36c.984 0 1.781.77 1.781 1.754 0 .961-.797 1.754-1.781 1.754-.961 0-1.754-.793-1.754-1.754 0-.984.793-1.754 1.754-1.754" style="stroke:none;fill-rule:evenodd;fill:#67c430;fill-opacity:1"/><path d="M146.762 20.852c-1.48 0-2.356.796-2.356 1.89 0 1.125.875 1.89 2.356 1.89h1.316v2.934h-1.125c-3.535 0-5.644-2.027-5.644-4.824 0-2.793 2.109-4.82 5.644-4.82h1.125v2.93zM155.191 24.688c.961 0 1.782-.848 1.782-1.973 0-1.121-.82-1.973-1.782-1.973-.957 0-1.754.852-1.754 1.973 0 1.125.797 1.973 1.754 1.973m-3.425-5.508a4.74 4.74 0 0 1 3.425-1.45c1.317 0 2.524.493 3.454 1.45.933.96 1.425 2.222 1.425 3.562a4.98 4.98 0 0 1-1.425 3.535c-.93.961-2.137 1.48-3.454 1.48-1.312 0-2.52-.546-3.425-1.48-.93-.957-1.453-2.164-1.453-3.535 0-1.367.523-2.574 1.453-3.562M161.996 22.496c0-2.984 1.781-4.766 4.14-4.766 1.094 0 2.083.438 2.848 1.258.77-.82 1.782-1.258 2.77-1.258 2.465 0 4.246 1.754 4.246 4.766v5.07h-3.016v-5.562c0-.793-.52-1.344-1.23-1.344-.742 0-1.29.55-1.29 1.344v5.562h-2.987v-5.562c0-.793-.52-1.344-1.258-1.344-.715 0-1.235.55-1.235 1.344v5.562h-2.988zM138.55 25.02a1.4 1.4 0 0 1 1.427 1.425c0 .766-.63 1.395-1.426 1.395-.766 0-1.422-.63-1.422-1.395 0-.797.629-1.425 1.422-1.425" style="stroke:none;fill-rule:evenodd;fill:#3068bb;fill-opacity:1"/><path d="M75.172 20.523c-.793-1.726-2.465-2.793-4.41-2.793-2.797 0-4.852 2.055-4.852 4.985 0 2.879 2.028 4.988 4.852 4.988.191 0 .437 0 .683-.055v-3.097a2.4 2.4 0 0 1-.574.082c-1.18 0-1.863-.738-1.863-1.918 0-1.176.71-1.918 1.699-1.918 1.23 0 1.863.742 1.863 2.168v4.601h3.012V23.54c0-1.125 0-2.082-.41-3.016M106.117 20.523c-.793-1.726-2.465-2.793-4.41-2.793-2.797 0-4.852 2.055-4.852 4.985 0 2.879 2.028 4.988 4.852 4.988.191 0 .41 0 .684-.055v-3.097a2.4 2.4 0 0 1-.575.082c-1.18 0-1.863-.738-1.863-1.918 0-1.176.711-1.918 1.7-1.918 1.234 0 1.863.742 1.863 2.168v4.601h3.011V23.54c0-1.125 0-2.082-.41-3.016M133.902 20.523c-.765-1.726-2.437-2.793-4.382-2.793-2.797 0-4.88 2.055-4.88 4.985 0 2.879 2.028 4.988 4.88 4.988.19 0 .41 0 .683-.055v-3.097a2.4 2.4 0 0 1-.574.082c-1.18 0-1.863-.738-1.863-1.918 0-1.176.71-1.918 1.699-1.918 1.23 0 1.863.742 1.863 2.168v4.601h3.016V23.54c0-1.125 0-2.082-.442-3.016" style="stroke:none;fill-rule:evenodd;fill:#67c430;fill-opacity:1"/></svg>
